public/formular-icons/operators/SquareRoot.svg

<svg style="vertical-align:-.475ex" xmlns="http://www.w3.org/2000/svg" width="4.231ex" height="2.851ex" viewBox="0 -1050.3 1870 1260" xmlns:xlink="http://www.w3.org/1999/xlink"><defs><path id="b" d="M263 249q1 0 52-119t102-238 53-120l255 530q256 535 257 537 7 11 19 11 7 0 12-6t7-12v-6L741 243Q645 43 540-176q-61-127-71-148t-16-24q-4-2-17-2l-12 1L315-96Q206 156 205 156l-34-26q-33-26-34-26l-26 26 152 119Z"/></defs><g stroke="currentColor" fill="currentColor" stroke-width="0"><g><g><text data-variant="normal" transform="translate(1020)" font-size="884" font-family="serif">⬚</text></g><use data-c="A0" xlink:href="#a" transform="matrix(1 0 0 -1 1620 0)"/><use data-c="221A" xlink:href="#b" transform="matrix(1 0 0 -1 0 -140.3)"/><path stroke="none" d="M1020-930.3h850v-60h-850z"/></g></g></svg>

<svg style="vertical-align: -0.475ex" xmlns="http://www.w3.org/2000/svg" width="4.231ex" height="2.851ex" role="img" focusable="false" viewBox="0 -1050.3 1870 1260" xmlns:xlink="http://www.w3.org/1999/xlink"><defs><path id="MJX-9-TEX-SO-221A" d="M263 249Q264 249 315 130T417 -108T470 -228L725 302Q981 837 982 839Q989 850 1001 850Q1008 850 1013 844T1020 832V826L741 243Q645 43 540 -176Q479 -303 469 -324T453 -348Q449 -350 436 -350L424 -349L315 -96Q206 156 205 156L171 130Q138 104 137 104L111 130L263 249Z"></path><path id="MJX-9-TEX-N-A0" d=""></path></defs><g stroke="currentColor" fill="currentColor" stroke-width="0" transform="scale(1,-1)"><g data-mml-node="math"><g data-mml-node="msqrt"><g transform="translate(1020,0)"><g data-mml-node="TeXAtom" data-mjx-texclass="ORD"><g data-mml-node="mo"><text data-variant="normal" transform="scale(1,-1)" font-size="884px" font-family="serif">⬚</text></g></g><g data-mml-node="mtext" transform="translate(600,0)"><use data-c="A0" xlink:href="#MJX-9-TEX-N-A0"></use></g></g><g data-mml-node="mo" transform="translate(0,140.3)"><use data-c="221A" xlink:href="#MJX-9-TEX-SO-221A"></use></g><rect width="850" height="60" x="1020" y="930.3"></rect></g></g></g></svg>
